img/svg/icon-font/list-empty.svg

<svg width="22" height="22" viewBox="0 0 22 22" fill="none" xmlns="http://www.w3.org/2000/svg">
<path d="M13.0393 20.2812H4.57922C3.6315 20.2812 2.86047 19.5102 2.86047 18.5625V5.58594C2.86047 4.63822 3.6315 3.86719 4.57922 3.86719H7.28149V4.29688C7.28149 5.71845 8.43803 6.875 9.85961 6.875C11.2812 6.875 12.4377 5.71845 12.4377 4.29688V3.86719H15.1448C16.0925 3.86719 16.8635 4.63822 16.8635 5.58594V11.8594C16.8635 12.334 17.2483 12.7188 17.7229 12.7188C18.1975 12.7188 18.5823 12.334 18.5823 11.8594V5.58594C18.5823 3.6905 17.0402 2.14844 15.1448 2.14844H12.4377V0.859375C12.4377 0.384742 12.053 0 11.5784 0H8.14086C7.66623 0 7.28149 0.384742 7.28149 0.859375V2.14844H4.57922C2.68379 2.14844 1.14172 3.6905 1.14172 5.58594V18.5625C1.14172 20.4579 2.68379 22 4.57922 22H13.0393C13.5139 22 13.8987 21.6153 13.8987 21.1406C13.8987 20.666 13.5139 20.2812 13.0393 20.2812ZM9.00019 1.71875H10.7189V4.29688C10.7189 4.77073 10.3334 5.15625 9.85957 5.15625C9.38571 5.15625 9.00019 4.77073 9.00019 4.29688V1.71875ZM20.1052 17.5996L15.3975 12.8814C15.2975 12.7812 15.1744 12.7072 15.0389 12.6661L11.6562 11.6386C11.3563 11.5475 11.0306 11.627 10.8063 11.8458C10.582 12.0647 10.4946 12.3883 10.5782 12.6903L11.5391 16.159C11.5787 16.3017 11.6544 16.4319 11.759 16.5367L16.4584 21.2449C16.961 21.7474 17.6212 21.9988 18.2814 21.9988C18.9416 21.9988 19.6018 21.7474 20.1044 21.2449C21.1097 20.2397 21.1097 18.6041 20.1052 17.5996ZM12.6518 13.7373L14.3331 14.2481L17.5095 17.4316L16.294 18.6471L13.1352 15.4824L12.6518 13.7373ZM18.8891 20.0295C18.5541 20.3647 18.0089 20.3647 17.6743 20.0301L17.5082 19.8637L18.7235 18.6484L18.8891 18.8143C19.2242 19.1493 19.2242 19.6945 18.8891 20.0295Z" fill="#4C51CB"/>
</svg>

<svg width="22" height="22" fill="none" xmlns="http://www.w3.org/2000/svg"><path d="M13.04 20.281H4.58a1.72 1.72 0 01-1.72-1.718V5.585a1.72 1.72 0 011.72-1.719h2.7v.43a2.581 2.581 0 002.58 2.579 2.581 2.581 0 002.578-2.578v-.43h2.707a1.72 1.72 0 011.718 1.719v6.273a.86.86 0 001.72 0V5.586a3.441 3.441 0 00-3.438-3.438h-2.707V.86a.86.86 0 00-.86-.859H8.141a.86.86 0 00-.86.86v1.288H4.58a3.441 3.441 0 00-3.437 3.438v12.976A3.441 3.441 0 004.579 22h8.46a.86.86 0 100-1.719zM9 1.72h1.719v2.578a.86.86 0 01-1.719 0V1.719zM20.105 17.6l-4.707-4.718a.859.859 0 00-.36-.215l-3.382-1.027a.86.86 0 00-1.078 1.051l.961 3.469a.86.86 0 00.22.378l4.7 4.708a2.57 2.57 0 001.822.754c.66 0 1.32-.252 1.823-.754a2.58 2.58 0 00.001-3.645zm-7.453-3.862l1.681.511 3.176 3.184-1.215 1.215-3.159-3.165-.483-1.745zm6.237 6.292a.86.86 0 01-1.215.001l-.166-.166 1.216-1.216.165.166a.86.86 0 010 1.215z" fill="#4C51CB"/></svg>
